!!!COM: Palestrina, Giovanni Perluigi da
!!!OPR: Missa Sine nomine (1591)
!!!OTL: Sanctus
**kern	**kern	**kern	**kern	**kern	**kern
*Ibass	*Itenor	*Itenor	*Icalto	*Icant	*Icant
!Bassus	!Tenor 2	!Tenor 1	!Altus	!Cantus 2	!Cantus 1
*clefF4	*clefGv2	*clefGv2	*clefG2	*clefG2	*clefG2
*k[b-]	*k[b-]	*k[b-]	*k[b-]	*k[b-]	*k[b-]
*G:dor	*G:dor	*G:dor	*G:dor	*G:dor	*G:dor
*M4/2	*M4/2	*M4/2	*M4/2	*M4/2	*M4/2
=1	=1	=1	=1	=1	=1
1D	0r	1r	0r	0r	0r
2.F	.	1D	.	.	.
4E	.	.	.	.	.
=2	=2	=2	=2	=2	=2
4D	0A	1.F	0r	0r	0r
4C	.	.	.	.	.
1D	.	.	.	.	.
4C	.	4E	.	.	.
4BB	.	4D	.	.	.
=3	=3	=3	=3	=3	=3
2C#	1A	2E	0r	1r	0r
2D	.	2F	.	.	.
4GG	1B-	1G	.	1d	.
4AA	.	.	.	.	.
4BB-	.	.	.	.	.
4C	.	.	.	.	.
=4	=4	=4	=4	=4	=4
1D	1A	1r	1r	2.f	1a
.	.	.	.	4g	.
1AA	1r	1A	1e	[1a	2.cc
.	.	.	.	.	4b-
=5	=5	=5	=5	=5	=5
1.D	0r	1A	2.f	2a]	4a
.	.	.	.	.	4g
.	.	.	.	2d	1a
.	.	.	4e	.	.
.	.	1B-	4d	1r	.
.	.	.	4c	.	.
2GG	.	.	[2d	.	2g
=6	=6	=6	=6	=6	=6
0AA	1r	0A	2d]	1a	2f
.	.	.	2c	.	2e
.	2r	.	2.e	2.cc	2.a
.	2A	.	.	.	.
.	.	.	4d	4b-	4b-
=7	=7	=7	=7	=7	=7
0r	2A	0r	2e	4a	0cc
.	.	.	.	4g	.
.	4F	.	1f	1a	.
.	4G	.	.	.	.
.	4A	.	.	.	.
.	4B-	.	.	.	.
.	[2c	.	4e	4g	.
.	.	.	4d	4f	.
=8	=8	=8	=8	=8	=8
0r	2c]	0r	2e	2g	1cc
.	2A	.	2.f	2a	.
.	1B-	.	.	1d	2f
.	.	.	4e	.	.
.	.	.	[2d	.	2g
=9	=9	=9	=9	=9	=9
1r	1A	2r	2d]	1e	1a
.	.	2A	2c#	.	.
[1D	1r	2B-	2r	[1d	[1f
.	.	4A	2d	.	.
.	.	4G	.	.	.
=10	=10	=10	=10	=10	=10
1D]	1A	1.F	2.f	1d]	2f]
.	.	.	.	.	2d
.	.	.	4e	.	.
1D	2.B-	.	4d	1r	1f
.	.	.	4c	.	.
.	.	[2B-	[2d	.	.
.	4A	.	.	.	.
=11	=11	=11	=11	=11	=11
1E-	4G	2B-]	2d]	1r	1g
.	4F	.	.	.	.
.	1G	4A	2c	.	.
.	.	4G	.	.	.
1D	.	1A	1d	1a	2r
.	2F#	.	.	.	[2dd
=12	=12	=12	=12	=12	=12
0G	2G	1G	2.B-	2.b-	2dd]
.	2.d	.	.	.	2g
.	.	.	4c	4a	.
.	.	1r	1d	4g	1b-
.	4c	.	.	4f	.
.	2B-	.	.	2g	.
=13	=13	=13	=13	=13	=13
1F	2.A	2r	2r	2a	[0cc
.	.	2.F	2.f	2.a	.
.	4B-	.	.	.	.
1r	1c	.	.	.	.
.	.	4F	4f	4a	.
.	.	2F	2f	2a	.
=14	=14	=14	=14	=14	=14
0r	0r	2c	2e	2g	1cc]
.	.	2F	2f	2a	.
.	.	2c	2e	2g	2r
.	.	2d	2d	2f	[2a
=15	=15	=15	=15	=15	=15
0r	0r	2.A	2.c	1e	4a]
.	.	.	.	.	4a
.	.	.	.	.	2a
.	.	4B	4d	.	.
.	.	[1c	4e	2r	2g
.	.	.	4f	.	.
.	.	.	[2e	[2cc	2a
=16	=16	=16	=16	=16	=16
0r	0r	2c]	2e]	2cc]	2g
.	.	2d	1d	2b-	2f
.	.	1A	.	2.a	1e
.	.	.	2c#	.	.
.	.	.	.	4g	.
=17	=17	=17	=17	=17	=17
2r	2r	1D	2d	2f	1d
2.BB-	2.d	.	2.f	2.b-	.
.	.	1r	.	.	1r
4BB-	4d	.	4f	4b-	.
2BB-	2d	.	2f	2b-	.
=18	=18	=18	=18	=18	=18
2F	2c	0r	2f	2a	1r
2BB-	2d	.	2f	2b-	.
2F	2c	.	2f	2a	2r
2G	2B-	.	2d	[2g	[2dd
=19	=19	=19	=19	=19	=19
1D	1A	2r	1d	2g]	4dd]
.	.	.	.	.	4dd
.	.	2.A	.	2f	2dd
1r	1r	.	1r	2e	2cc
.	.	4A	.	.	.
.	.	2B-	.	2d	2dd
=20	=20	=20	=20	=20	=20
0r	0r	2A	2r	4e	2cc
.	.	.	.	4f#	.
.	.	2G	2.d	1g	2b-
.	.	2D	.	.	1a
.	.	.	4d	.	.
.	.	2D	2d	2f#	.
=21	=21	=21	=21	=21	=21
2r	2r	2G	1B-	2g	2r
2.BB-	2.d	4F	.	2.dd	2.b-
.	.	4E	.	.	.
.	.	1D	1f	.	.
4BB-	4d	.	.	4dd	4b-
2BB-	2d	.	.	2b-	2b-
=22	=22	=22	=22	=22	=22
2F	2c	1r	1.f	2cc	2a
2BB-	2B-	.	.	2dd	2b-
2F	2c	2r	.	4cc	2a
.	.	.	.	4a	.
2G	2B-	[2G	2d	4b-	2g
.	.	.	.	4cc	.
=23	=23	=23	=23	=23	=23
1D	1A	2G]	0d	2.dd	1a
.	.	2F#	.	.	.
.	.	.	.	4cc	.
2.GG	2.B-	2.G	.	4b-	[1dd
.	.	.	.	4a	.
.	.	.	.	[2b-	.
4AA	8A	8F	.	.	.
.	8G	8E-	.	.	.
=24	=24	=24	=24	=24	=24
2.BB-	2F	[0D	1.d	4b-]	1dd]
.	.	.	.	4a	.
.	2B-	.	.	1g	.
4C	.	.	.	.	.
2D	1A	.	.	.	1dd
2D	.	.	2d	2f#	.
=25	=25	=25	=25	=25	=25
0GG	0G	1D]	1d	0g	1b
.	.	1d	2r	.	2r
.	.	.	2d	.	2dd
=26	=26	=26	=26	=26	=26
0r	0r	2A	2e	0r	2cc#
.	.	2d	2f	.	2dd
.	.	1G	1g	.	1b
=27	=27	=27	=27	=27	=27
0r	2r	1D	1f	1r	2a
.	2d	.	.	.	2.a
.	2c#	1r	2e	2r	.
.	.	.	.	.	4g
.	2d	.	[2f	2d	4f
.	.	.	.	.	4e
=28	=28	=28	=28	=28	=28
0r	1B-	0r	2f]	2f	2d
.	.	.	4e	2g	1dd
.	.	.	4d	.	.
.	[1A	.	1e	2.a	.
.	.	.	.	.	2cc#
.	.	.	.	4g	.
=29	=29	=29	=29	=29	=29
1D	1A]	2r	1d	4f	1dd
.	.	.	.	4e	.
.	.	2d	.	2f	.
2E	2G	2c#	1r	2g	1r
2F	[2A	2d	.	4f	.
.	.	.	.	4e	.
=30	=30	=30	=30	=30	=30
1G	4A]	1B-	1r	0d	1r
.	4G	.	.	.	.
.	1G	.	.	.	.
1D	.	1A	2r	.	2r
.	2F	.	2d	.	2a
=31	=31	=31	=31	=31	=31
0r	2E	0r	2e	2r	2g
.	2.D	.	2.f	2d	2a
.	.	.	.	1a	1f
.	4E	.	4e	.	.
.	4F	.	[2d	.	.
.	4G	.	.	.	.
=32	=32	=32	=32	=32	=32
0r	1A	1r	2d]	2a	1e
.	.	.	2c	1a	.
.	2r	1D	1f	.	1d
.	2d	.	.	2b	.
=33	=33	=33	=33	=33	=33
0r	2c	2E	2g	2cc	0r
.	2d	2F	4f	2.a	.
.	.	.	4e	.	.
.	1B-	1G	1d	.	.
.	.	.	.	4g	.
.	.	.	.	[2g	.
=34	=34	=34	=34	=34	=34
2r	1A	1D	2r	2g]	2r
2D	.	.	2d	2f#	2a
2G	4G	1r	2.d	1g	2.b-
.	4A	.	.	.	.
2GG	4B-	.	.	.	.
.	4c	.	4c	.	4a
=35	=35	=35	=35	=35	=35
2GG	1d	2r	2B-	2r	2g
2D	.	2d	2A	2a	2f#
1GG	1r	2.d	1G	2.b-	4g
.	.	.	.	.	4a
.	.	.	.	.	4b-
.	.	4c	.	4a	4cc
=36	=36	=36	=36	=36	=36
2GG	2r	2B-	2d	2g	1dd
2D	2A	2A	2d	2f#	.
2.G	2.B-	1G	2.e-	2g	1b-
.	.	.	.	2g	.
4F	4A	.	4d	.	.
=37	=37	=37	=37	=37	=37
2E-	2G	2G	2c	2r	1r
2D	2F	2d	2B	2d	.
[1C	2G	2.e-	2c	2.g	2r
.	2G	.	2c	.	2g
.	.	4d	.	4f	.
=38	=38	=38	=38	=38	=38
2C]	2r	2c	2r	2e-	1g
2GG	2d	2B	2g	2d	.
[1C	2.e-	[1c	2.g	2c	2g
.	.	.	.	2c	4cc
.	4d	.	4f	.	4b-
=39	=39	=39	=39	=39	=39
1C]	2c	2c]	2e-	1r	4a
.	.	.	.	.	4g
.	2B-	2G	2e-	.	1g
1D	1A	2r	1d	2r	.
.	.	2d	.	2a	2f#
=40	=40	=40	=40	=40	=40
1.GG	1G	2.d	2B-	2.b-	4g
.	.	.	.	.	4a
.	.	.	2G	.	4b-
.	.	4c	.	4a	4cc
.	1D	2B-	2G	2g	2.dd
2D	.	2A	2A	2f#	.
.	.	.	.	.	4cc
=41	=41	=41	=41	=41	=41
1GG	1D	1B-	2d	1g	4b-
.	.	.	.	.	4a
.	.	.	2d	.	1g
1D	1D	1A	1d	1a	.
.	.	.	.	.	2f#
=42	=42	=42	=42	=42	=42
[0GG	[0D	[0G	[0d	[0b	[0g
=43	=43	=43	=43	=43	=43
0GG]	0D]	0G]	0d]	0b]	0g]
==	==	==	==	==	==
*-	*-	*-	*-	*-	*-
!!!CDT: 1525/^1526/-1594/2/2
!!!OCY: Italia
!!!AGN: Mass (Parody)
!!!AST: renaissance, vocal
!!!ASW: Motet (unidentified)
!!!PWK: Masses, Book 1
!!!RNB: Cadence finals: D
!!!YOR: Le Opere Complete, v. 1, p. 182
!!!YOO: Rome, Italy: Fratelli Scalera
!!!END: 1992//
!!!EED: John Miller
!!!YEC: Copyright 2000, John Miller
!!!YEN: United States of America
!!!YEM: Rights to all derivative electronic formats reserved.
!!!YEM: Refer to licensing agreement for further details.
!!!YEM: This file must be accompanied by the licensing agreement.
!!!YEM: A copy of the licensing agreement may be found at http://www.music-cog.ohio-state.edu/HumdrumDatabases/Palestrina/license.txt
!!!EMD: converted to Humdrum by Bret Aarden
